<?xml version="1.0" encoding="UTF-8"?>
<map version="1.10" tiledversion="1.11.2" orientation="orthogonal" renderorder="right-down" width="22" height="16" tilewidth="48" tileheight="48" infinite="0" nextlayerid="5" nextobjectid="37">
 <tileset firstgid="1" name="dirt-a" tilewidth="48" tileheight="48" tilecount="25" columns="5">
  <image source="../tiles/PNG/Tiles/dirt-a.png" width="256" height="256"/>
  <tile id="0"/>
  <tile id="1"/>
  <tile id="2"/>
  <tile id="3"/>
  <tile id="4"/>
  <tile id="5"/>
  <tile id="7"/>
  <tile id="8"/>
  <tile id="9"/>
  <tile id="10"/>
  <tile id="11"/>
  <tile id="12"/>
  <tile id="13"/>
  <tile id="14"/>
  <tile id="15"/>
  <tile id="16"/>
  <tile id="17"/>
  <tile id="6"/>
  <tile id="18"/>
  <tile id="19"/>
  <tile id="20"/>
  <tile id="21"/>
  <tile id="22"/>
  <tile id="23"/>
  <tile id="24"/>
 </tileset>
 <tileset firstgid="26" name="short-hedge" tilewidth="48" tileheight="48" tilecount="4" columns="2">
  <image source="../tiles/PNG/Blocks/short-hedge.png" width="128" height="128"/>
 </tileset>
 <tileset firstgid="30" name="Decor_Tile_B_05" tilewidth="48" tileheight="48" tilecount="4" columns="2">
  <image source="../tiles/PNG/Decor_Tiles/Decor_Tile_B_05.png" width="128" height="128"/>
 </tileset>
 <layer id="1" name="Tile Layer 1" width="22" height="16">
  <data encoding="csv">
30,31,12,13,14,15,1,2,3,4,1,2,3,4,5,1,2,3,4,5,1,2,
32,33,17,18,7,19,6,8,9,10,6,8,9,10,11,6,8,9,10,11,6,8,
1,2,21,22,23,24,12,13,14,15,12,13,14,15,16,12,13,14,15,16,1,2,
6,8,17,18,7,17,17,18,7,19,1,2,3,4,5,17,18,7,19,20,6,8,
12,13,21,22,23,1,21,22,23,24,6,8,9,10,11,21,22,23,24,25,12,13,
17,18,7,19,20,6,17,18,7,19,12,13,14,15,16,17,18,7,19,20,17,18,
21,22,23,24,25,12,21,22,23,24,17,18,7,19,20,21,22,23,24,25,21,22,
1,2,3,4,5,17,6,8,9,10,1,2,3,4,5,6,8,9,10,11,30,31,
6,8,9,10,11,21,12,13,14,15,6,8,9,10,11,12,13,14,15,16,32,33,
1,2,3,4,5,16,17,18,7,19,12,13,14,15,16,17,18,7,1,2,3,4,
6,8,9,10,11,21,21,22,23,24,1,2,3,4,5,21,22,23,6,8,9,10,
12,13,1,2,3,4,1,2,3,4,1,2,3,4,5,1,2,1,2,3,4,5,
17,18,6,8,9,10,6,8,9,10,6,8,9,10,11,6,8,6,8,9,10,11,
21,22,12,13,14,15,12,13,14,15,12,13,14,15,16,12,13,12,13,14,15,16,
30,31,17,18,7,19,17,18,7,19,17,18,7,19,20,17,18,17,18,7,19,20,
32,33,21,22,23,24,21,22,23,24,21,22,23,24,25,21,22,21,22,23,24,25
</data>
 </layer>
 <objectgroup id="2" name="Collisions">
  <object id="2" x="12" y="156" width="80" height="26"/>
  <object id="3" x="0.5" y="145" width="96.5" height="47.5"/>
  <object id="4" x="191" y="95" width="48" height="195"/>
  <object id="6" x="95" y="287" width="338" height="50"/>
  <object id="7" x="433" y="237" width="192" height="51"/>
  <object id="8" x="336" y="-2" width="49" height="194"/>
  <object id="9" x="479" y="95" width="51" height="143"/>
  <object id="10" x="623" y="-1" width="49" height="95"/>
  <object id="11" x="768" y="94" width="49" height="145"/>
  <object id="12" x="625" y="191" width="142" height="48"/>
  <object id="13" x="909" y="96" width="51" height="97"/>
  <object id="14" x="960" y="93" width="97" height="54"/>
  <object id="15" x="1" y="429" width="144" height="50"/>
  <object id="16" x="96" y="576" width="95" height="48"/>
  <object id="17" x="191" y="576" width="47" height="95"/>
  <object id="18" x="240" y="479" width="49" height="96"/>
  <object id="19" x="287" y="431" width="146" height="49"/>
  <object id="20" x="432" y="479" width="191" height="50"/>
  <object id="21" x="623" y="528" width="97" height="49"/>
  <object id="22" x="721" y="579" width="46" height="43"/>
  <object id="23" x="768" y="623" width="145" height="48"/>
  <object id="24" x="910" y="526" width="146" height="50"/>
  <object id="25" x="528" y="623" width="48" height="48"/>
  <object id="26" x="574" y="669" width="53" height="97"/>
  <object id="27" x="383" y="576" width="51" height="96"/>
  <object id="28" x="574.667" y="336" width="193.333" height="97.3333"/>
  <object id="29" x="768.667" y="288" width="143.333" height="47.3333"/>
  <object id="30" x="767.333" y="432" width="146" height="48.6667"/>
  <object id="32" x="-8" y="1.33333" width="8" height="764.667"/>
  <object id="33" x="0" y="768" width="1057" height="7.5"/>
  <object id="34" x="1056.5" y="-0.5" width="5" height="768"/>
  <object id="35" x="-2.5" y="-5" width="1058" height="3.5"/>
 </objectgroup>
 <layer id="4" name="Tile Layer 2" width="22" height="16">
  <data encoding="csv">
0,0,0,0,0,0,0,27,0,0,0,0,0,27,0,0,0,0,0,0,0,0,
0,0,0,0,0,0,0,27,0,0,0,0,0,27,0,0,0,0,0,0,0,0,
0,0,0,0,27,0,0,27,0,0,27,0,0,0,0,0,27,0,0,27,27,27,
27,27,0,0,27,0,0,27,0,0,27,0,0,0,0,0,27,0,0,27,0,0,
0,0,0,0,27,0,0,0,0,0,27,0,0,27,27,27,27,0,0,0,0,0,
0,0,0,0,27,0,0,0,0,27,27,27,27,0,0,0,0,0,0,0,0,0,
0,0,27,27,27,27,27,27,27,0,0,0,0,0,0,0,27,27,27,0,0,0,
0,0,0,0,0,0,0,0,0,0,0,0,27,27,27,27,0,0,0,0,0,0,
0,0,0,0,0,0,0,0,0,0,0,0,27,27,27,27,0,0,0,0,0,0,
27,27,27,0,0,0,27,27,27,0,0,0,0,0,0,0,27,27,27,0,0,0,
0,0,0,0,0,27,0,0,0,27,27,27,27,0,0,0,0,0,0,0,0,0,
0,0,0,0,0,27,0,0,0,0,0,0,0,27,27,0,0,0,0,27,27,27,
0,0,27,27,27,0,0,0,27,0,0,0,0,0,0,27,0,0,0,0,0,0,
0,0,0,0,27,0,0,0,27,0,0,27,0,0,0,0,27,27,27,0,0,0,
0,0,0,0,0,0,0,0,0,0,0,0,27,0,0,0,0,0,0,0,0,0,
0,0,0,0,0,0,0,0,0,0,0,0,27,0,0,0,0,0,0,0,0,0
</data>
 </layer>
</map>
